X:1
T:Title
%%score { ( 1 3 ) | ( 2 4 ) }
L:1/8
M:4/4
K:D
V:1 treble nm="Grand Piano"
V:3 treble 
V:2 bass 
V:4 bass 
V:1
 z4 z2[Q:1/4=106] [DF][EG] | [FA]2 [DA]2 [CA]2 [CG]2 | F3 E D2 D2 | [CE]2 [CE]2 [DF]2 [DF]2 | %4
[M:7/8] [FA][EG][EG] [DF] [CE]3 |[M:1/4] [DF][EG] |[M:4/4] [FA]2 [DA]2 [CA]2 [CG]2 | F3 E D2 D2 | %8
[M:1/4] F2 |[M:4/4] E2 E2 A2 c2 | d3 ^G z2 (3=GFE | [FA]2- [DF-A-]>[DF-A-] [DFA]2 F>d | [Ec]4 z4 | %13
 [EG]6 z2 | [FA]4 z4 | A2 [EG]>[^DF] [EG]2 [GB]2 | [GB]2 [FA]>[=F^G] [^FA]2 [Fd]2 | c4 ed B2 | %18
 [CA]6 [CA]2 | [EG]2 [Gc]>[Gc] [Gc]2 [CGB]2 | [DFA]2 [Fd]>[Fd] [Fd]4 | %21
 [Ed]2[K:bass] [A,,E,]2 [GB]2 [C,A,]2 | [GB][FA] [FA]>[=F^G] [^FA]2 [FA]>[FA] | %23
 [EG]2 [Ac]>[GB] [FA]2 [EG]2 | FF G2 A4 | BB B2 [Gc][Gc] [Gc]2 |[M:3/4] [Fd]6 |] %27
V:2
 z4 z2 [D,A,]2 | [D,A,]2 [D,F,]2 [A,,E,]2 [A,,A,]2 | [D,A,D]3 [D,G,A,] [D,F,A,]2 [D,F,]2 | %3
 [A,,A,]2 [A,,A,]2 [D,A,]2 [D,A,]2 |[M:7/8] [C,A,]2 [D,A,]2 [A,,A,]3 |[M:1/4] [D,A,]2 | %6
[M:4/4] [D,A,]2 [D,F,]2 [A,,E,]2 [A,,A,]2 | [D,A,D]3 [D,G,A,] [D,F,A,]2 [D,F,]2 |[M:1/4] [D,A,D]2 | %9
[M:4/4] [E,A,C]2 [E,A,C]2 [E,CE]2 [E,A,E]2 | [E,^G,E]3 [E,B,D] z2 (3B,A,-[=G,A,] | %11
 D,2 D,>D, D,2 D>F | [A,,A,]2 A,,>A,, [A,,A,]2 z2 | [A,,A,]2 A,,>A,, A,,2 z z/ G/ | %14
 D,2 D,>D, [D,A,D]2 [F,A,D]2 | [E,A,C]2 [A,,A,]>[A,,A,] [A,,A,]2 [A,,A,]2 | %16
 [D,A,]2 [D,D]>[D,D] [D,D]2 [D,A,]2 | [E,A,E]4 [E,^G,E]2 [E,G,D]2 | [A,,A,]6 [A,,E,]2 | %19
 [A,,A,]2 [A,,E,]>[A,,E,] [A,,E,]2 A,,2 | D,2 [D,A,]>[D,A,] [D,A,]4 | [A,,A,]2 z2 [A,,A,]2 z2 | %22
 [D,A,]2 [D,D]>[D,D] [D,D]2 [D,A,]>[D,A,] | [A,,A,]2 [A,,A,]>[A,,A,] [A,,A,]2 [C,A,]2 | %24
 [D,A,D][D,A,D] [E,A,C]2 [F,A,D]4 | [G,D][G,D] [G,D]2 [E,A,][E,A,] [A,,A,]2 |[M:3/4] [D,A,]6 |] %27
V:3
 x8 | x8 | x8 | x8 |[M:7/8] x7 |[M:1/4] x2 |[M:4/4] x8 | x8 |[M:1/4] x2 |[M:4/4] x8 | z4 .[A,CA]4 | %11
 A,2 z2 z4 | z2 A,>A, [CE]2 z2 | z2 A,>A, A,2 [CE]>B | A,2 D>D F2 A2 | x8 | x8 | x8 | x8 | x8 | %20
 x8 | x2[K:bass] x6 | x8 | x8 | x8 | x8 |[M:3/4] x6 |] %27
V:4
 x8 | x8 | x8 | x8 |[M:7/8] x7 |[M:1/4] x2 |[M:4/4] x8 | x8 |[M:1/4] x2 |[M:4/4] x8 | z4 A,,4 | %11
 z4 z2 [D,A,]2 | x8 | z4 z2 [A,,A,]2 | x8 | x8 | x8 | x8 | x8 | x8 | x8 | x8 | x8 | x8 | x8 | x8 | %26
[M:3/4] x6 |] %27

